assets/braces-icon.svg

<svg xmlns="http://www.w3.org/2000/svg" width="16" height="16" fill="#EEEEEE" class="bi bi-braces" viewBox="0 0 16 16">
  <path d="M2.114 8.063V7.9c1.005-.102 1.497-.615 1.497-1.6V4.503c0-1.094.39-1.538 1.354-1.538h.273V2h-.376C3.25 2 2.49 2.759 2.49 4.352v1.524c0 1.094-.376 1.456-1.49 1.456v1.299c1.114 0 1.49.362 1.49 1.456v1.524c0 1.593.759 2.352 2.372 2.352h.376v-.964h-.273c-.964 0-1.354-.444-1.354-1.538V9.663c0-.984-.492-1.497-1.497-1.6zM13.886 7.9v.163c-1.005.103-1.497.616-1.497 1.6v1.798c0 1.094-.39 1.538-1.354 1.538h-.273v.964h.376c1.613 0 2.372-.759 2.372-2.352v-1.524c0-1.094.376-1.456 1.49-1.456V7.332c-1.114 0-1.49-.362-1.49-1.456V4.352C13.51 2.759 12.75 2 11.138 2h-.376v.964h.273c.964 0 1.354.444 1.354 1.538V6.3c0 .984.492 1.497 1.497 1.6z"/>
</svg>

<svg width="16" height="16" viewBox="0 0 16 16" fill="none" xmlns="http://www.w3.org/2000/svg">
<path fill="#EEEEEE" d="M2.114 8.063V7.9C3.119 7.798 3.611 7.285 3.611 6.3V4.503C3.611 3.409 4.001 2.965 4.965 2.965H5.238V2H4.862C3.25 2 2.49 2.759 2.49 4.352V5.876C2.49 6.97 2.114 7.332 1 7.332V8.631C2.114 8.631 2.49 8.993 2.49 10.087V11.611C2.49 13.204 3.249 13.963 4.862 13.963H5.238V12.999H4.965C4.001 12.999 3.611 12.555 3.611 11.461V9.663C3.611 8.679 3.119 8.166 2.114 8.063ZM13.886 7.9V8.063C12.881 8.166 12.389 8.679 12.389 9.663V11.461C12.389 12.555 11.999 12.999 11.035 12.999H10.762V13.963H11.138C12.751 13.963 13.51 13.204 13.51 11.611V10.087C13.51 8.993 13.886 8.631 15 8.631V7.332C13.886 7.332 13.51 6.97 13.51 5.876V4.352C13.51 2.759 12.75 2 11.138 2H10.762V2.964H11.035C11.999 2.964 12.389 3.408 12.389 4.502V6.3C12.389 7.284 12.881 7.797 13.886 7.9Z"/>
</svg>
